!!!id: bhatk3187a
!!!vol: 3
!!!page: 187
!!!antara: Sola singaar
!!!raag: bihag
!!!taal: teental
!!!tempo: madhyalaya
**kern
!!data: // >mP  -  P  >S'N/  N  -  N  S'/  S'  -  S'  S'/  >NS'  R'  S'  S'
==1
f#q
2g
4g
ccq
4b
=
2b
4b
4cc
=
2cc
4cc
4cc
=
bq
4cc
4dd
4cc
4cc
!!data: // >NS'  S'  S'  S'/  [N  -  P]  P/ >DP  P  N  N/  >NS'  ND  m  P/
==2
bq
4cc
4cc
4cc
4cc
=
2bH
4gh
4g
=
aq
4g
4g
4b
4b
=
bq
4cc
8b
8a
4f#
4g
!!data: // >PG  M  G  M/  P  P  N  -/  >NS'  G'  >R'N  S'/  N  N  m  P/
==3
gq
4e
4f
4e
4f
=
4g
4g
2b
=
bq
4cc
4ee
ddq
4b
4cc
=
4b
4b
4f#
4g
!!data: // >mP  N  S'  R'/  S'  N  >DP  P/  P  -  >GM  G/  >GM  GR  N,  S/
==4
f#q
4g
4b
4cc
4dd
=
4cc
4b
aq
4g
4g
=
2g
eq
4f
4e
=
eq
4f
8e
8d
4B
4c
==
*-
